X:7
T:Ned Coleman's Jig
M:2/2
L:1/8
R:Double Jig
Z:Rob Greenway
S:Rob Greenway <robgreenway:yahoo.com> IrishTradAccord 2005-5-22
K:G
|: EDE G2A | ~B3 dBd | edB G2B | ~A3 AGF |
   EDE G2A | ~B3 dBd | edB G2B | AGF G3 :|
|: B2d def | gfe fdB | ~A3 ABd | egf e2f |
   gfe fed | edB gfg | edB ~A3 | BGF G3 :|
